public/img/Mypage/Vector4.svg

<svg width="13" height="13" viewBox="0 0 13 13" fill="none" xmlns="http://www.w3.org/2000/svg">
<path d="M0.959248 6.17889C0.952159 6.09256 0.962119 6.00562 0.988496 5.92359C1.01487 5.84155 1.05709 5.7662 1.11247 5.70233C1.16785 5.63846 1.23519 5.58745 1.3102 5.55255C1.38522 5.51765 1.46628 5.49962 1.54823 5.4996H2.67742C2.83425 5.4996 2.98466 5.56547 3.09556 5.68272C3.20646 5.79997 3.26877 5.95899 3.26877 6.12481V12.0643C3.26877 12.2301 3.20646 12.3891 3.09556 12.5064C2.98466 12.6236 2.83425 12.6895 2.67742 12.6895H2.03698C1.88898 12.6895 1.74634 12.6309 1.63724 12.5251C1.52814 12.4194 1.46051 12.2743 1.4477 12.1184L0.959248 6.17889ZM5.04282 5.92943C5.04282 5.66809 5.19657 5.43427 5.41981 5.32298C5.90737 5.07977 6.73793 4.59117 7.11255 3.93064C7.59538 3.07911 7.68645 1.54079 7.70124 1.18848C7.70331 1.13909 7.70212 1.0897 7.70833 1.04093C7.78846 0.430419 8.90286 1.14347 9.33011 1.89747C9.56222 2.30635 9.59178 2.84372 9.56754 3.26355C9.54122 3.71244 9.41674 4.14603 9.29463 4.57679L9.03444 5.49491H12.2446C12.3359 5.4949 12.4261 5.51728 12.5079 5.56029C12.5897 5.60329 12.661 5.66575 12.7161 5.74277C12.7713 5.81979 12.8088 5.90927 12.8257 6.00419C12.8427 6.09911 12.8386 6.19689 12.8138 6.28986L11.226 12.2343C11.1909 12.3654 11.1163 12.4808 11.0135 12.563C10.9107 12.6452 10.7854 12.6896 10.6565 12.6895H5.63417C5.47733 12.6895 5.32692 12.6236 5.21602 12.5064C5.10512 12.3891 5.04282 12.2301 5.04282 12.0643V5.92943Z" fill="#3C332B"/>
</svg>

<svg xmlns="http://www.w3.org/2000/svg" width="13" height="13" fill="none"><path fill="#3C332B" d="M.96 6.179a.66.66 0 0 1 .152-.477.564.564 0 0 1 .436-.203h1.13c.156 0 .307.066.418.184s.173.276.173.442v5.94a.64.64 0 0 1-.173.441.58.58 0 0 1-.419.184h-.64a.57.57 0 0 1-.4-.165.64.64 0 0 1-.19-.407zm4.083-.25c0-.26.154-.495.377-.606.487-.243 1.318-.732 1.693-1.392.482-.852.573-2.39.588-2.743.002-.049.001-.098.007-.147.08-.61 1.195.102 1.622.856.232.41.262.947.238 1.367-.027.448-.151.882-.273 1.313l-.26.918h3.21c.09 0 .181.022.263.065a.6.6 0 0 1 .208.183.64.64 0 0 1 .098.547l-1.588 5.944a.63.63 0 0 1-.213.329.57.57 0 0 1-.357.127H5.634a.58.58 0 0 1-.418-.184.64.64 0 0 1-.173-.442z"/></svg>
